src/icons/slack.svg

<svg width="118" height="31" viewBox="0 0 118 31" fill="none" xmlns="http://www.w3.org/2000/svg">
<path d="M37.8288 23.7752L39.2882 20.33C40.8857 21.5254 42.9705 22.1583 45.0541 22.1583C46.582 22.1583 47.5553 21.5606 47.5553 20.6471C47.5205 18.1154 38.3508 20.0846 38.2812 13.7214C38.2464 10.4875 41.0945 7.99109 45.1248 7.99109C47.5217 7.99109 49.9185 8.58878 51.6204 9.96029L50.2573 13.4795C48.6911 12.4626 46.7571 11.7534 44.9172 11.7534C43.6666 11.7534 42.8324 12.351 42.8324 13.1249C42.8672 15.6213 52.1065 14.2498 52.2109 20.3324C52.2109 23.6367 49.4312 25.957 45.4717 25.957C42.5528 25.9546 39.8787 25.2513 37.8288 23.7752Z" fill="white"/>
<path d="M94.1671 19.0818C93.4397 20.3829 92.0603 21.2612 90.4778 21.2612C88.1379 21.2612 86.2399 19.3414 86.2399 16.9717C86.2399 14.6021 88.1367 12.6822 90.4778 12.6822C92.0603 12.6822 93.4397 13.5606 94.1671 14.8616L98.2229 12.5871C96.7043 9.84407 93.8051 7.98877 90.4778 7.98877C85.5763 7.98877 81.6028 12.0106 81.6028 16.9717C81.6028 21.9329 85.5763 25.9547 90.4778 25.9547C93.8063 25.9547 96.7043 24.0994 98.2229 21.3564L94.1671 19.0818Z" fill="white"/>
<path d="M59.326 0.511108H54.2539V25.6023H59.326V0.511108Z" fill="white"/>
<path d="M100.196 0.511108V25.6035H105.268V18.0848L111.278 25.6035H117.759L110.118 16.6722L117.204 8.33978H110.999L105.268 15.2666V0.511108H100.196Z" fill="white"/>
<path d="M74.3625 19.1159C73.6327 20.3465 72.1048 21.2601 70.4029 21.2601C68.0629 21.2601 66.165 19.3402 66.165 16.9706C66.165 14.6009 68.0629 12.681 70.4029 12.681C72.1048 12.681 73.6327 13.6298 74.3625 14.8957V19.1159ZM74.3625 8.33987V10.3795C73.5283 8.97278 71.4795 7.98877 69.3252 7.98877C64.8784 7.98877 61.3701 11.9612 61.3701 16.9541C61.3701 21.947 64.8784 25.9547 69.3252 25.9547C71.4784 25.9547 73.5283 24.9707 74.3613 23.5639V25.6024H79.4322V8.33987H74.3625Z" fill="white"/>
<path d="M6.50525 19.0853C6.50525 20.8361 5.10265 22.2557 3.37289 22.2557C1.64314 22.2557 0.24054 20.8361 0.24054 19.0853C0.24054 17.3345 1.64314 15.9148 3.37289 15.9148H6.50525V19.0853Z" fill="#E01E5A"/>
<path d="M8.07143 19.0853C8.07143 17.3345 9.47402 15.9148 11.2038 15.9148C12.9335 15.9148 14.3361 17.3345 14.3361 19.0853V27.0114C14.3361 28.7622 12.9335 30.1819 11.2038 30.1819C9.47402 30.1819 8.07143 28.7622 8.07143 27.0114V19.0853Z" fill="#E01E5A"/>
<path d="M11.2038 6.40341C9.47402 6.40341 8.07143 4.98375 8.07143 3.23295C8.07143 1.48216 9.47402 0.0625 11.2038 0.0625C12.9335 0.0625 14.3361 1.48216 14.3361 3.23295V6.40341H11.2038Z" fill="#36C5F0"/>
<path d="M11.2038 7.98865C12.9335 7.98865 14.3361 9.40831 14.3361 11.1591C14.3361 12.9099 12.9335 14.3296 11.2038 14.3296H3.37289C1.64314 14.3296 0.24054 12.9099 0.24054 11.1591C0.24054 9.40831 1.64314 7.98865 3.37289 7.98865H11.2038Z" fill="#36C5F0"/>
<path d="M23.7332 11.1591C23.7332 9.40831 25.1358 7.98865 26.8655 7.98865C28.5953 7.98865 29.9979 9.40831 29.9979 11.1591C29.9979 12.9099 28.5953 14.3296 26.8655 14.3296H23.7332V11.1591Z" fill="#2EB67D"/>
<path d="M22.167 11.1591C22.167 12.9099 20.7644 14.3295 19.0347 14.3295C17.3049 14.3295 15.9023 12.9099 15.9023 11.1591V3.23295C15.9023 1.48216 17.3049 0.0625 19.0347 0.0625C20.7644 0.0625 22.167 1.48216 22.167 3.23295V11.1591Z" fill="#2EB67D"/>
<path d="M19.0347 23.8409C20.7644 23.8409 22.167 25.2606 22.167 27.0114C22.167 28.7622 20.7644 30.1818 19.0347 30.1818C17.3049 30.1818 15.9023 28.7622 15.9023 27.0114V23.8409H19.0347Z" fill="#ECB22E"/>
<path d="M19.0347 22.2557C17.3049 22.2557 15.9023 20.8361 15.9023 19.0853C15.9023 17.3345 17.3049 15.9148 19.0347 15.9148H26.8655C28.5953 15.9148 29.9979 17.3345 29.9979 19.0853C29.9979 20.8361 28.5953 22.2557 26.8655 22.2557H19.0347Z" fill="#ECB22E"/>
</svg>

<svg xmlns="http://www.w3.org/2000/svg" width="118" height="31" fill="none"><path fill="#fff" d="M37.829 23.775l1.46-3.445c1.597 1.195 3.681 1.828 5.765 1.828 1.528 0 2.501-.597 2.501-1.51-.035-2.533-9.204-.563-9.274-6.927-.035-3.233 2.813-5.73 6.844-5.73 2.397 0 4.794.598 6.495 1.97l-1.363 3.518c-1.566-1.016-3.5-1.726-5.34-1.726-1.25 0-2.085.598-2.085 1.372.035 2.496 9.274 1.125 9.379 7.207 0 3.305-2.78 5.625-6.74 5.625-2.918-.002-5.592-.706-7.642-2.182zM94.167 19.082a4.226 4.226 0 0 1-3.69 2.18c-2.34 0-4.237-1.92-4.237-4.29s1.897-4.29 4.238-4.29c1.582 0 2.962.879 3.69 2.18l4.055-2.275c-1.519-2.743-4.418-4.598-7.745-4.598-4.902 0-8.875 4.022-8.875 8.983 0 4.96 3.973 8.983 8.875 8.983 3.328 0 6.226-1.856 7.745-4.599l-4.056-2.274zM59.326.511h-5.072v25.091h5.072V.512zM100.196.511v25.093h5.072v-7.52l6.01 7.52h6.481l-7.641-8.932 7.086-8.332h-6.205l-5.731 6.927V.51h-5.072zM74.362 19.116c-.73 1.23-2.257 2.144-3.96 2.144-2.34 0-4.237-1.92-4.237-4.29s1.898-4.289 4.238-4.289c1.702 0 3.23.949 3.96 2.215v4.22zm0-10.776v2.04c-.834-1.407-2.882-2.391-5.037-2.391-4.447 0-7.955 3.972-7.955 8.965s3.508 9 7.955 9c2.153 0 4.203-.983 5.036-2.39v2.038h5.071V8.34h-5.07z"/><path fill="#E01E5A" d="M6.505 19.085c0 1.751-1.402 3.17-3.132 3.17-1.73 0-3.132-1.419-3.132-3.17 0-1.75 1.402-3.17 3.132-3.17h3.132v3.17zM8.071 19.085c0-1.75 1.403-3.17 3.133-3.17s3.132 1.42 3.132 3.17v7.926c0 1.751-1.402 3.17-3.132 3.17-1.73 0-3.133-1.419-3.133-3.17v-7.926z"/><path fill="#36C5F0" d="M11.204 6.403c-1.73 0-3.133-1.42-3.133-3.17S9.474.063 11.204.063s3.132 1.42 3.132 3.17v3.17h-3.132zM11.204 7.989c1.73 0 3.132 1.42 3.132 3.17s-1.402 3.17-3.132 3.17H3.373c-1.73 0-3.132-1.42-3.132-3.17s1.402-3.17 3.132-3.17h7.83z"/><path fill="#2EB67D" d="M23.733 11.16c0-1.752 1.403-3.171 3.133-3.171s3.132 1.42 3.132 3.17-1.403 3.17-3.133 3.17h-3.132v-3.17zM22.167 11.16c0 1.75-1.403 3.17-3.132 3.17-1.73 0-3.133-1.42-3.133-3.17V3.232c0-1.75 1.403-3.17 3.133-3.17s3.132 1.42 3.132 3.17v7.926z"/><path fill="#ECB22E" d="M19.035 23.84c1.73 0 3.132 1.42 3.132 3.171s-1.403 3.17-3.132 3.17c-1.73 0-3.133-1.419-3.133-3.17v-3.17h3.133zM19.035 22.256c-1.73 0-3.133-1.42-3.133-3.17 0-1.752 1.403-3.171 3.133-3.171h7.83c1.73 0 3.133 1.42 3.133 3.17 0 1.751-1.403 3.17-3.133 3.17h-7.83z"/></svg>
